X: 7530
T: Cock And The Hen, The
R: slip jig
M: 9/8
K: Bminor
|:B3 BAB f2A|B3 BAB cBA|B3 BAB f2g|afd edB dBA:|
|:afd def g2f|afd dfe dBA|afd def g2e|fed edB dBA:|

